X: 39
T: Miss Mary Campbell Ardmore's Jig
C: Alexander Markey
R: jig
Z: 2012 John Chambers <jc:trillian.mit.edu>
M: 6/8
L: 1/8
K: G
B |\
"G"GAG G2c | BAB g3 | "C"edc "G"BAG | "D7"FGA A2c |\
"G"BGB deg | "D"fdf "G"g2b | "D"afd "A7"ge^c | "D"d3 d2 :|
g |\
"D"afd deg | "D7"fef "G"g2d | BdB Bcd | "A7"efe e^cA |\
"D"afd deg | "D7"fef "G"g2b | "D"afd "A7"ge^c | "D"d3 d2 ||
g |\
"D"afd deg | "D7"fef "G"g2d | BdB Bcd | "A7"efe e^cA |\
"G"dBG "D7"cAF | "G"GAG g2b | "D"afd "A7"ge^c | "D"d3 d2 |]
